X: 10891
T: GEM SCHOTTISCHE
N: Bowing and Fingering arranged by W.B. Laybourn
R: shottish
B: K\"ohler's Violin Repository, v.1, 1885 p.89 #1
F: http://www.archive.org/details/klersviolinrepos01edin
Z: 2012 John Chambers <jc:trillian.mit.edu>
M: 2/4
L: 1/16
K: C
(e>f) |\
(3ggge'2 (3d'd'd'c'2 | (3bbbc'2 g2z2 | v(3fffa2 (3BBBd2 | {d}c>Bc>e g2(e>f) |
(3ggge'2 (3d'd'd'c'2 | (3bbbc'2 g2z2 | v(3fffa2 (3BBBd2 | c2c2c2 :|
|: u(GF) |\
EGce (^fg)(fg) | EGce (^fg)(fg) | agfe (^cd)(cd) | gfed (Bc)(Bc) |
EGce (^fg)(fg) | EGce (^fg)(fg) | agfe (^cd)(cd) | gfed c2 :|

%%sep 2 1 500

